X:46
T:Concertina
Z: id:dc-reel-240
M:C
L:1/8
K:G Major
dgg2 dgg2|dgfg edBd|edfd edfd|edfd edBc|!
dgg2 dgg2|dgfg edBA|Bdef gfge|dBAB G4:|!
d2Bd edBd|d2Bd edBd|edfd edfd|edfd edBd|!
d2Bd edBd|d2Bd edBA|Bdef gfge|dBAB G4:|!

